frontend/src/assets/img/pinterest.svg

<svg width="16" height="16" viewBox="0 0 16 16" fill="none" xmlns="http://www.w3.org/2000/svg">
<g clip-path="url(#clip0_101_8)">
<path d="M8.00002 1.61021e-06C6.13472 -0.00118135 4.32764 0.649478 2.89123 1.83948C1.45483 3.02947 0.479399 4.684 0.133611 6.51697C-0.212176 8.34994 0.0934123 10.2461 0.997539 11.8777C1.90167 13.5092 3.34749 14.7735 5.08502 15.452C5.01502 14.819 4.95102 13.846 5.11202 13.155C5.25802 12.53 6.05002 9.178 6.05002 9.178C6.05002 9.178 5.81102 8.699 5.81102 7.991C5.81102 6.878 6.45602 6.048 7.25902 6.048C7.94102 6.048 8.27102 6.56 8.27102 7.175C8.27102 7.861 7.83402 8.887 7.60802 9.838C7.42002 10.634 8.00802 11.284 8.79302 11.284C10.215 11.284 11.308 9.784 11.308 7.62C11.308 5.705 9.93102 4.366 7.96602 4.366C5.69002 4.366 4.35402 6.073 4.35402 7.837C4.35402 8.525 4.61902 9.262 4.94902 9.663C4.97744 9.69323 4.99754 9.73031 5.00735 9.77062C5.01717 9.81093 5.01636 9.85309 5.00502 9.893C4.94402 10.145 4.80902 10.689 4.78302 10.8C4.74802 10.946 4.66702 10.977 4.51502 10.907C3.51502 10.442 2.89102 8.981 2.89102 7.807C2.89102 5.284 4.72502 2.967 8.17702 2.967C10.952 2.967 13.109 4.944 13.109 7.587C13.109 10.344 11.37 12.563 8.95802 12.563C8.14702 12.563 7.38502 12.142 7.12402 11.644L6.62602 13.546C6.44502 14.241 5.95702 15.112 5.63102 15.643C6.73099 15.9831 7.89142 16.0818 9.03302 15.9323C10.1746 15.7828 11.2705 15.3886 12.2458 14.7767C13.2211 14.1648 14.0528 13.3496 14.6842 12.3868C15.3155 11.424 15.7316 10.3362 15.904 9.19787C16.0764 8.0595 16.001 6.89733 15.6831 5.79075C15.3651 4.68418 14.8121 3.65927 14.0617 2.78604C13.3113 1.91281 12.3813 1.21184 11.3351 0.731016C10.289 0.250192 9.15137 0.000842303 8.00002 1.61021e-06Z" fill="#3A3A3A"/>
</g>
<defs>
<clipPath id="clip0_101_8">
<rect width="16" height="16" fill="white"/>
</clipPath>
</defs>
</svg>

<svg xmlns="http://www.w3.org/2000/svg" width="16" height="16" fill="currentColor" class="bi bi-pinterest" viewBox="0 0 16 16">
  <path d="M8 0a8 8 0 0 0-2.915 15.452c-.07-.633-.134-1.606.027-2.297.146-.625.938-3.977.938-3.977s-.239-.479-.239-1.187c0-1.113.645-1.943 1.448-1.943.682 0 1.012.512 1.012 1.127 0 .686-.437 1.712-.663 2.663-.188.796.4 1.446 1.185 1.446 1.422 0 2.515-1.5 2.515-3.664 0-1.915-1.377-3.254-3.342-3.254-2.276 0-3.612 1.707-3.612 3.471 0 .688.265 1.425.595 1.826a.24.24 0 0 1 .056.23c-.061.252-.196.796-.222.907-.035.146-.116.177-.268.107-1-.465-1.624-1.926-1.624-3.1 0-2.523 1.834-4.84 5.286-4.84 2.775 0 4.932 1.977 4.932 4.62 0 2.757-1.739 4.976-4.151 4.976-.811 0-1.573-.421-1.834-.919l-.498 1.902c-.181.695-.669 1.566-.995 2.097A8 8 0 1 0 8 0z"/>
</svg>
